X:476
T:Reel 476
M:4/4
K:Amaj
L:1/8
E,|A,CEA FAEC|A,CEA  (3FGA EA|GFEA FDB,C|DEFG AFEC|A,CEA FAEC|A,CEA  (3FGA EC|FEDE FGAF|ECDB, CA,A,|G|A2cA EAcA|EAcA BABG|A2cA EAcA|cABA cAA2|AGAE  (3FGA EA|AccA BAFG|A2AF EFGE|DCB,D CA,A,|
